packages/sights/assets/overlays/OOJDJ7go.svg

<svg width="500" height="375" viewBox="0 0 500 375" fill="none" xmlns="http://www.w3.org/2000/svg">
<path d="M7 72.7901C7 72.7901 51.07 29.3801 54.13 27.5401L70.48 18.0601L100.48 5.12012" stroke="white" stroke-miterlimit="10"/>
<path d="M7 271.52L255.45 369.62L257.9 367.82L253.01 344.28C253.01 344.28 243.68 252.1 347.32 243.85C347.32 243.85 419.61 237.85 493.07 269.99" stroke="white" stroke-miterlimit="10"/>
<path d="M7 110.09C7 110.09 349.16 66.8302 399.15 65.9502C399.15 65.9502 359.25 14.0802 347.32 5.16016" stroke="white" stroke-miterlimit="10"/>
<path d="M132.47 4C132.47 4 69.87 18.68 48.07 40L7 80.36" stroke="white" stroke-miterlimit="10"/>
<path d="M147.99 5.2002C147.99 5.2002 122.99 60.7102 113.69 96.8702L105.18 102.29L89.7504 133.29C89.7504 133.29 90.3604 140.93 89.7504 143.22C89.7504 143.22 83.1704 181.44 93.2604 233.22C93.2604 233.22 96.7004 246.98 83.9704 262V267.5L83.4004 269.56L86.1504 292.72L98.8104 307.72" stroke="white" stroke-miterlimit="10"/>
<path d="M7 244C7 244 214.45 305.1 235.89 306.52C235.89 306.52 256.06 213.12 373.46 214.04C373.46 214.04 429.87 216.33 468.39 226.88" stroke="white" stroke-miterlimit="10"/>
<path d="M399.149 65.9502L406.709 75.1202C406.709 75.1202 422.989 101.72 393.179 165.47L371.629 214.07" stroke="white" stroke-miterlimit="10"/>
<path d="M257.9 367.82L260.88 365.15L262.02 361.02L269.36 352.31" stroke="white" stroke-miterlimit="10"/>
<path d="M388.88 244.55C388.88 244.55 355.27 248.74 341.06 256.55C341.06 256.55 309.95 271.55 287.48 306.55C287.48 306.55 268.9 333.01 269.36 369.73" stroke="white" stroke-miterlimit="10"/>
<path d="M289.619 370.21C290.596 364.549 292.241 359.023 294.519 353.75C315.069 306.1 382.189 289.23 444.419 316.07C462.745 323.868 479.37 335.173 493.359 349.35" stroke="white" stroke-miterlimit="10"/>
<path d="M303.179 138.95L301.239 142.74L302.239 144.57H338.529L341.619 143.31L347.129 137.69H349.879C349.879 137.69 373.149 137.69 376.129 141.13L377.619 143.88L372.809 154.78L369.369 156.5C369.369 156.5 291.369 158.79 281.429 154.89L280.629 152.83L281.999 145.6L284.529 142.6C284.529 142.6 299.859 138.03 303.179 138.95Z" stroke="white" stroke-miterlimit="10"/>
<path d="M55.5002 143.41L56.6502 143.8L51.3802 146.09L51.9102 146.93L65.2102 146.63L72.0702 143.41L74.4402 142.5L83.3802 144.71L84.2202 146.63L83.3802 152.82L81.2402 154.04C81.2402 154.04 50.5902 154.27 47.9202 153.2L46.0802 152.2L45.1602 148.28L46.4602 146.09C46.4602 146.09 51.9902 143.11 55.5002 143.41Z" stroke="white" stroke-miterlimit="10"/>
</svg>

<svg width="500" height="375" fill="none" xmlns="http://www.w3.org/2000/svg"><path d="M7 72.79s44.07-43.41 47.13-45.25l16.35-9.48 30-12.94M7 271.52l248.45 98.1 2.45-1.8-4.89-23.54s-9.33-92.18 94.31-100.43c0 0 72.29-6 145.75 26.14M7 110.09s342.16-43.26 392.15-44.14c0 0-39.9-51.87-51.83-60.79" stroke="#fff" stroke-miterlimit="10"/><path d="M132.47 4s-62.6 14.68-84.4 36L7 80.36M147.99 5.2s-25 55.51-34.3 91.67l-8.51 5.42-15.43 31s.61 7.64 0 9.93c0 0-6.58 38.22 3.51 90 0 0 3.44 13.76-9.29 28.78v5.5l-.57 2.06 2.75 23.16 12.66 15" stroke="#fff" stroke-miterlimit="10"/><path d="M7 244s207.45 61.1 228.89 62.52c0 0 20.17-93.4 137.57-92.48 0 0 56.41 2.29 94.93 12.84" stroke="#fff" stroke-miterlimit="10"/><path d="m399.149 65.95 7.56 9.17s16.28 26.6-13.53 90.35l-21.55 48.6M257.9 367.82l2.98-2.67 1.14-4.13 7.34-8.71" stroke="#fff" stroke-miterlimit="10"/><path d="M388.88 244.55s-33.61 4.19-47.82 12c0 0-31.11 15-53.58 50 0 0-18.58 26.46-18.12 63.18" stroke="#fff" stroke-miterlimit="10"/><path d="M289.619 370.21a72.67 72.67 0 0 1 4.9-16.46c20.55-47.65 87.67-64.52 149.9-37.68a152.808 152.808 0 0 1 48.94 33.28M303.179 138.95l-1.94 3.79 1 1.83h36.29l3.09-1.26 5.51-5.62h2.75s23.27 0 26.25 3.44l1.49 2.75-4.81 10.9-3.44 1.72s-78 2.29-87.94-1.61l-.8-2.06 1.37-7.23 2.53-3s15.33-4.57 18.65-3.65ZM55.5 143.41l1.15.39-5.27 2.29.53.84 13.3-.3 6.86-3.22 2.37-.91 8.94 2.21.84 1.92-.84 6.19-2.14 1.22s-30.65.23-33.32-.84l-1.84-1-.92-3.92 1.3-2.19s5.53-2.98 9.04-2.68Z" stroke="#fff" stroke-miterlimit="10"/></svg>
